icons/circle/48/qcomicbook.svg

<svg xmlns="http://www.w3.org/2000/svg" viewBox="0 0 48 48">
 <defs>
  <linearGradient id="linearGradient4180" x1="1" x2="47" gradientUnits="userSpaceOnUse" gradientTransform="matrix(0,-1,1,0,0,48)">
   <stop style="stop-color:#353535;stop-opacity:1"/>
   <stop offset="1" style="stop-color:#3f3f3f;stop-opacity:1"/>
  </linearGradient>
 </defs>
 <path d="m 36.31,5 c 5.859,4.062 9.688,10.831 9.688,18.5 0,12.426 -10.07,22.5 -22.5,22.5 -7.669,0 -14.438,-3.828 -18.5,-9.688 1.037,1.822 2.306,3.499 3.781,4.969 4.085,3.712 9.514,5.969 15.469,5.969 12.703,0 23,-10.298 23,-23 0,-5.954 -2.256,-11.384 -5.969,-15.469 C 39.81,7.306 38.132,6.037 36.31,5 Z m 4.969,3.781 c 3.854,4.113 6.219,9.637 6.219,15.719 0,12.703 -10.297,23 -23,23 -6.081,0 -11.606,-2.364 -15.719,-6.219 4.16,4.144 9.883,6.719 16.219,6.719 12.703,0 23,-10.298 23,-23 0,-6.335 -2.575,-12.06 -6.719,-16.219 z" style="opacity:0.05"/>
 <path d="m 41.28 8.781 c 3.712 4.085 5.969 9.514 5.969 15.469 0 12.703 -10.297 23 -23 23 -5.954 0 -11.384 -2.256 -15.469 -5.969 4.113 3.854 9.637 6.219 15.719 6.219 12.703 0 23 -10.298 23 -23 0 -6.081 -2.364 -11.606 -6.219 -15.719 z" style="opacity:0.1"/>
 <path d="M 31.25,2.375 C 39.865,5.529 46,13.792 46,23.505 c 0,12.426 -10.07,22.5 -22.5,22.5 -9.708,0 -17.971,-6.135 -21.12,-14.75 a 23,23 0 0 0 44.875,-7 23,23 0 0 0 -16,-21.875 z" style="opacity:0.2"/>
 <path d="M 1,24 C 1,11.297 11.297,1 24,1 36.703,1 47,11.297 47,24 47,36.703 36.703,47 24,47 11.297,47 1,36.703 1,24 Z" style="fill:url(#linearGradient4180);fill-opacity:1"/>
 <path d="m 40.03,7.531 c 3.712,4.084 5.969,9.514 5.969,15.469 0,12.703 -10.297,23 -23,23 C 17.045,46 11.615,43.744 7.53,40.031 11.708,44.322 17.54,47 23.999,47 c 12.703,0 23,-10.298 23,-23 0,-6.462 -2.677,-12.291 -6.969,-16.469 z" style="opacity:0.1"/>
 <path d="m 25 12 a 13 13 0 0 0 -13 13 13 13 0 0 0 1.773 6.521 L 12.521 37.15 18 35.938 A 13 13 0 0 0 25 38 13 13 0 0 0 38 25 13 13 0 0 0 25 12" style="fill:#000;opacity:0.1;fill-opacity:1"/>
 <path d="M 24 11 A 13 13 0 0 0 11 24 A 13 13 0 0 0 12.773 30.521 L 11.521 36.15 L 17 34.938 A 13 13 0 0 0 24 37 A 13 13 0 0 0 37 24 A 13 13 0 0 0 24 11 z" style="fill:#beacac;fill-opacity:1"/>
</svg>

<svg version="1.1" viewBox="0 0 48 48" xmlns="http://www.w3.org/2000/svg">
 <defs>
  <linearGradient id="linearGradient4180" x1="1" x2="47" gradientTransform="matrix(0,-1,1,0,0,48)" gradientUnits="userSpaceOnUse">
   <stop style="stop-color:#3d3d3d" offset="0"/>
   <stop style="stop-color:#474747" offset="1"/>
  </linearGradient>
 </defs>
 <path d="m36.3 5c5.86 4.06 9.69 10.8 9.69 18.5 0 12.4-10.1 22.5-22.5 22.5-7.67 0-14.4-3.83-18.5-9.69 1.04 1.82 2.31 3.5 3.78 4.97 4.08 3.71 9.51 5.97 15.5 5.97 12.7 0 23-10.3 23-23 0-5.95-2.26-11.4-5.97-15.5-1.47-1.48-3.15-2.74-4.97-3.78zm4.97 3.78c3.85 4.11 6.22 9.64 6.22 15.7 0 12.7-10.3 23-23 23-6.08 0-11.6-2.36-15.7-6.22 4.16 4.14 9.88 6.72 16.2 6.72 12.7 0 23-10.3 23-23 0-6.34-2.58-12.1-6.72-16.2z" style="opacity:.05"/>
 <path d="m41.3 8.78c3.71 4.08 5.97 9.51 5.97 15.5 0 12.7-10.3 23-23 23-5.95 0-11.4-2.26-15.5-5.97 4.11 3.85 9.64 6.22 15.7 6.22 12.7 0 23-10.3 23-23 0-6.08-2.36-11.6-6.22-15.7z" style="opacity:.1"/>
 <path d="m31.2 2.38c8.62 3.15 14.8 11.4 14.8 21.1 0 12.4-10.1 22.5-22.5 22.5-9.71 0-18-6.14-21.1-14.8a23 23 0 0 0 44.9-7 23 23 0 0 0-16-21.9z" style="opacity:.2"/>
 <path d="m1 24c0-12.7 10.3-23 23-23s23 10.3 23 23-10.3 23-23 23-23-10.3-23-23z" style="fill:url(#linearGradient4180)"/>
 <path d="m40 7.53c3.71 4.08 5.97 9.51 5.97 15.5 0 12.7-10.3 23-23 23-5.95 0-11.4-2.26-15.5-5.97 4.18 4.29 10 6.97 16.5 6.97 12.7 0 23-10.3 23-23 0-6.46-2.68-12.3-6.97-16.5z" style="opacity:.1"/>
 <path d="m25 12a13 13 0 0 0-13 13 13 13 0 0 0 1.77 6.52l-1.25 5.63 5.48-1.21a13 13 0 0 0 7 2.06 13 13 0 0 0 13-13 13 13 0 0 0-13-13" style="opacity:.1"/>
 <path d="m24 11a13 13 0 0 0-13 13 13 13 0 0 0 1.77 6.52l-1.25 5.63 5.48-1.21a13 13 0 0 0 7 2.06 13 13 0 0 0 13-13 13 13 0 0 0-13-13z" style="fill:#beacac"/>
</svg>
